src/com/lilithsthrone/res/clothing/hand_fishnet_gloves.svg

<?xml version="1.0" encoding="UTF-8"?>
<svg cursor="default" version="1.1" viewBox="0 0 256 256" xmlns="http://www.w3.org/2000/svg" xmlns:cc="http://creativecommons.org/ns#" xmlns:dc="http://purl.org/dc/elements/1.1/" xmlns:rdf="http://www.w3.org/1999/02/22-rdf-syntax-ns#">
 <metadata>
  <rdf:RDF>
   <cc:Work rdf:about="">
    <dc:format>image/svg+xml</dc:format>
    <dc:type rdf:resource="http://purl.org/dc/dcmitype/StillImage"/>
    <dc:title/>
   </cc:Work>
  </rdf:RDF>
 </metadata>
 <g fill="#666" fill-rule="evenodd" stroke="#000">
  <g stroke-width=".551">
   <path d="M102.693 208.18s-1.657 6.442-3.888 12.69c-1.49 4.17-3.395 7.848-4.643 10.962-1.072 2.675-7.532 17.455-7.532 17.455-1.188 3.023-7.995 2.181-6.685-2.66 1.667-6.165 6.122-21.075 7.476-27.21 1.07-4.847 4.342-9.87 5.44-14.797 2.677-1.631 6.089.186 9.832 3.56zM118.187 197.436s1.02 6.78 2.048 13.335c.687 4.374 1.377 8.186 1.77 11.517.337 2.862.71 8.617.71 8.617.149 1.804-4.643 2.95-5.344.665-1.875-6.106-3.364-12.19-5.109-18.225-1.378-4.769-2.603-9.134-5.594-13.499 1.57-2.712 6.618-3.583 11.519-2.41z"/>
   <path d="M131.585 197.988s-.517 6.837-1.058 13.45c-.362 4.413-.769 8.265-.914 11.617-.125 2.879-.073 8.645-.073 8.645-.015 1.81 4.848 2.6 5.38.269 1.418-6.228 2.454-12.405 3.748-18.552 1.023-4.858 1.922-9.302 4.583-13.876-1.767-2.589-6.865-3.084-11.666-1.553z"/>
   <path d="M171.679 178.736c-.032-2.608-.2-3.386 2.543-4.515 1.49-.763 5.513.02 9.3-1.683 3.499-1.573 6.803-5.62 7.548-6.694 1.504-2.645.413-4.709-2.768-5.682-1.406.152-6.222 1.831-8.978 1.89-8.186 1.005-9.415 2.077-13.705.088z"/>
  </g>
  <path d="m72.633 37.975c10.043 26.31 19.492 52.622 30.905 78.933l19.907 39.258c4.087 6.857 0.06 16.36 2.937 23.85 3.017 7.852 2.733 15.124 4.672 19.4 5.883-1.616 10.964 5.506 10.964 5.506l35.511-13.953c-2.069-4.011-1.786-5.478-3.34-10.859-6.307-6.703-4.087-11.997-4.456-17.053-8.222-1.34-19.075-28.18-27.29-43.67l-17.745-45.078a3826.6 3826.6 0 0 1-23.944-51.926c-6.87-16.31-30.657-8.43-28.12 15.592z" stroke-width="1.6"/>
 </g>
 <path d="m76.336 47.294c-0.361-5.252-0.722-10.514-1.083-15.947m4.627 25.495c1.302-11.576 1.509-22.549-0.886-32.09m5.611 44.493c0.565-16.038 2.088-32.937 3.58-51.384m2.325 67.233c-2.97-29.956 8.786-46.282 7.384-64.772m-0.788 80.029c-4.747-29.246 8.989-53.752 9.056-65.559m19.294 139.58c1.887-8.901 5.893-9.998 4.627-30.515m-2.461 41.54c16.93-25.151 11.291-40.525 10.533-55.617m-7.679 69.005c6.565-19.691 27.22-32.368 14.668-73.73m-4.774 77.372c-0.68-17.491 24.541-31.412 15.306-56.503m-5.118 49.317c-0.556-8.283 16.522-19.451 13.387-35.536m-3.937 32.485c4.339-11.806 10.466-13.244 7.481-29.63m1.291 27.066c1.801-3.113 2.724-7.299 3.04-11.71m-82.49-160.16c5.69 3.07 10.595 6.44 13.88 10.435m-22.74-5.217c12.66 0.204 19.945 5.347 25.79 11.812m-30.909-3.15c20.883 0.072 29.831 5.418 34.847 12.502m-37.012-5.513c19.13 4.17 37.599 8.684 43.805 19.59m-40.655-10.927c16.858 4.02 35.484 12.202 47.053 24.609m-43.706-14.766c17.201 5.662 30.012 12.95 41.245 19.885m-36.618-8.171c11.026 3.314 22.279 7.906 33.862 14.372m-29.728-4.036c8.909 3.634 16.447 6.27 27.168 11.222m-23.526-1.378 20.18 8.466m-15.652 1.378 12.206 5.217m-8.861 5.049 6.007 1.35m42.032 20.278c-0.71-0.285-7.974-3.15-8.17-3.052m12.994 12.403c-5.61-3.204-10.683-5.471-15.553-7.383m20.376 15.849c-1.068-1.111-24.63-11.941-23.822-10.73m27.267 17.719c-10.19-3.59-20.465-7.037-30.121-11.517m37.8 18.9c-15.63-1.426-28.156-7.624-41.541-12.502m-3.642 5.513c14.898 5.7 29.281 13.981 45.38 13.682m-43.018-7.087c15.363 8.426 30.693 15.26 45.872 14.864m-46.167-8.761c13.366 13.152 38.836 12.544 48.628 19.688m-10.139 2.46c-15.58-4.708-29.395-6.814-38.489-15.159m28.744 18.309c-9.062-1.648-18.08-3.745-26.775-9.056m17.817 12.896c-6.51-2.323-12.222-4.293-15.947-5.316" fill="none" stroke="#000" stroke-width="1.6"/>
 <path d="M76.6 175.864c-.093.083-4.42 4.047-7.377 3.828-3.182-.503-6.488-.867-8.659-2.509-2.252-2.045-1.857-4.346.863-6.26 1.383-.295 3.027-.153 4.802.208 6.365-4.497 6.915-6.45 10.372-9.675z" fill="#666" fill-rule="evenodd" stroke="#000" stroke-width=".551"/>
 <g fill="none">
  <path d="m104.39 117.58c-4.932-23.868 4.007-45.72 8.958-67.036m7.088 14.077c-8.613 21.72-5.885 44.816-8.761 67.232" stroke="#000" stroke-width="1.6"/>
  <path d="m72.633 37.975c10.043 26.31 19.492 52.622 30.905 78.933l19.907 39.258c4.087 6.857 0.06 16.36 2.937 23.85 3.017 7.852 2.733 15.124 4.672 19.4 5.883-1.616 10.964 5.506 10.964 5.506l35.511-13.953c-2.069-4.011-1.786-5.478-3.34-10.859-6.307-6.703-4.087-11.997-4.456-17.053-8.222-1.34-19.075-28.18-27.29-43.67l-17.745-45.078a3826.6 3826.6 0 0 1-23.944-51.926c-6.87-16.31-30.657-8.43-28.12 15.592z" fill-rule="evenodd" stroke="#ff2a2a" stroke-width="1.102"/>
  <path d="m104.39 117.58c-4.932-23.868 4.007-45.72 8.958-67.036m7.088 14.077c-8.613 21.72-5.885 44.816-8.761 67.232" stroke="#ff2a2a" stroke-width="1.102"/>
 </g>
 <g fill="#666" fill-rule="evenodd" stroke="#000">
  <path d="m181.28 39.936c-7.157 11.074-11.98 29.413-16.764 39.608-15.538 33.114-37.826 70.031-42.889 79.895-2.298 4.478 0.152 23.063-2.756 37.997-9.375-0.831-13.014 1.3953-12.479 5.5662-17.565-2.415-23.782-7.9622-35.952-12.063 5.136-14.792 6.682-23.99 5.142-28.768 17.594-22.917 29.97-51.052 42.926-78.607 9.873-21 30.225-57.41 31.272-61.347 6.265-21.452 30.668-10.118 31.5 17.719z" stroke-width="1.6"/>
  <path d="m168.37 198.88s5.587 8.483 11.823 14.544c4.162 4.046 9.294 8.27 12.557 11.206 2.803 2.523 8.853 7.748 8.853 7.748 1.813 1.52 6.476-2.949 4.547-5.445-5.15-6.666-10.552-13.182-15.72-19.65-4.085-5.112-6.847-7.813-11.01-13-4.015-0.289-8.778-1.733-11.05 4.597z" stroke-width=".723"/>
  <path d="m156.72 202.33s4.137 6.13 8.499 12.667c2.911 4.363 6.613 9.366 8.934 12.58 1.993 2.762 12.755 17.32 12.755 17.32 2.227 3.128 9.296-0.01 6.369-5.208-1.652-2.933-4.413-8.018-7.457-12.901-3.828-6.141-8.005-12.2-9.888-15.923-2.672-5.282-7.008-10.422-9.736-15.785-3.394-1.041-6.5 2.15-9.476 7.25z" stroke-width=".64"/>
  <path d="m78.594 200.81s-5.617 8.463-11.874 14.503c-4.176 4.031-9.323 8.236-12.596 11.162-2.812 2.513-8.88 7.717-8.88 7.717-1.818 1.513-6.465-2.972-4.528-5.46 5.174-6.649 10.598-13.146 15.79-19.596 4.102-5.098 6.873-7.79 11.055-12.962 4.015-0.274 8.783-1.702 11.033 4.636z" stroke-width=".723"/>
  <path d="M91.046 206.247s-3.661 6.425-7.515 13.274c-2.572 4.571-5.884 9.84-7.955 13.221-1.778 2.905-11.405 18.237-11.405 18.237-1.984 3.288-9.271.694-6.745-4.711 1.424-3.049 3.792-8.33 6.457-13.429 3.351-6.413 7.057-12.77 8.653-16.626 2.264-5.47 6.198-10.923 8.512-16.478 3.305-1.295 6.644 1.651 9.998 6.512z" stroke-width=".64"/>
  <path d="M146.17 207.776s2.435 6.19 5.417 12.118c1.99 3.956 4.332 7.371 5.953 10.309 1.393 2.523 9.618 16.398 9.618 16.398 1.55 2.854 8.202 1.183 6.308-3.46-2.412-5.915-8.663-20.164-10.76-26.086-1.657-4.68-5.521-9.264-7.217-14.018-2.856-1.29-6.018.932-9.32 4.74z" stroke-width=".551"/>
 </g>
 <g fill="none">
  <path d="m166.32 13.85c-5.35 2.067-9.293 1.434-17.254 10.288m26.605-0.74c-18.036-6.252-22.3 2.493-30.225 7.921m34.458 1.529c-27.206-7.265-34.71 5.533-39.217 7.386m39.512 1.276c-34.204-6.522-39.702 8.456-47.348 13.73m42.82-4.771c-23.137-4.724-38.704 7.57-49.636 17.718m46.191-8.465c-23.417-0.969-44.456 11.563-52.52 21.46m48.484-10.238c-32.266 1.816-46.13 14.084-53.603 20.996m49.075-10.759c-25.658 2.606-49.023 15.153-55.125 23.822m49.908-12.797c-31.611 4.078-42.444 13.543-54.24 21.46m49.613-12.206c-21.714 3.77-40.695 12.704-54.882 22.64m49.763-13.19c-20.952 4.397-37.229 14.39-54.928 23.067m49.884-13.872c-21.322 5.76-38.843 14.86-56.496 25.39m51.992-17.064c-13.555 5.066-35.678 18.984-58.177 26.677m53.452-18.9c-12.855 7.06-34.487 28.036-58.767 26.184m54.164-17.579c-6.927 10.176-28.456 25.986-53.869 27.128m-4.61 16.369c1.675-4.876 13.267-8.481 27.218-12.234 8.642-2.324 18.283-8.513 22.789-16.116m-43.133 32.357c17.904-7.323 37.568-13.351 42.242-23.51m-31.611 27.448c16.44-6.138 27.274-11.616 31.599-18.408m-21.632 21.356c9.185-3.359 16.876-7.14 21.233-11.865m58.575-142.87c-1.009-1.12-1.648-16.566-0.885-16.44m-4.627 28.646c0.48-11.386-2.494-26.19-3.15-40.064m-2.363 55.027c3.293-19.702-2.702-44.812-6.595-58.472m0.615 72.449c3.473-23.023-2.253-45.146-8.884-67.134m1.772 81.317c1.58-26.535-3.082-48.637-8.76-69.209m1.418 83.146c0.597-21.862-2.61-45.502-8.31-69.463m-2.592 89.151c6.103-16.944 3.546-24.587-3.806-77.535m-5.61 93.22c6.63-30.116 0.103-53.853-0.985-80.227m-4.823 91.816c-0.942-24.872-1.857-50.997-3.052-75.869m2.362 90.563c-4.978-13.905-15.662-21.53-8.998-76.457m8.309 87.974c-27.056-30.041-18.732-50.168-17.128-69.398m16.242 78.553c-15.181-15.253-36.248-25.83-24.707-62.311m13.19 65.263c-32.452-33.499-22.056-41.941-19.589-53.844m6.653 52.914c-18.37-17.506-15.97-36.12-13.15-43.17m-1.968 37.506c-6.692-4.546-3.959-9.845-4.725-14.865" stroke="#000" stroke-width="1.6"/>
  <g stroke="#ff2a2a" stroke-width="1.102">
   <path d="m166.32 13.85c-5.35 2.067-9.293 1.434-17.254 10.288m26.605-0.74c-18.036-6.252-22.3 2.493-30.225 7.921m34.458 1.529c-27.206-7.265-34.71 5.533-39.217 7.386m39.512 1.276c-34.204-6.522-39.702 8.456-47.348 13.73m42.82-4.771c-23.137-4.724-38.704 7.57-49.636 17.718m46.191-8.465c-23.417-0.969-44.456 11.563-52.52 21.46m48.484-10.238c-32.266 1.816-46.13 14.084-53.603 20.996m49.075-10.759c-25.658 2.606-49.023 15.153-55.125 23.822m49.908-12.797c-31.611 4.078-42.444 13.543-54.24 21.46m49.613-12.206c-21.714 3.77-40.695 12.704-54.882 22.64m49.763-13.19c-20.952 4.397-37.229 14.39-54.928 23.067m49.884-13.872c-21.322 5.76-38.843 14.86-56.496 25.39m51.992-17.064c-13.555 5.066-35.678 18.984-58.177 26.677m53.452-18.9c-12.855 7.06-34.487 28.036-58.767 26.184m54.164-17.579c-6.927 10.176-28.456 25.986-53.869 27.128m-4.61 16.369c1.675-4.876 13.267-8.481 27.218-12.234 8.642-2.324 18.283-8.513 22.789-16.116m-43.133 32.357c17.904-7.323 37.568-13.351 42.242-23.51m-31.611 27.448c16.44-6.138 27.274-11.616 31.599-18.408m-21.632 21.356c9.185-3.359 16.876-7.14 21.233-11.865m58.575-142.87c-1.009-1.12-1.648-16.566-0.885-16.44m-4.627 28.646c0.48-11.386-2.494-26.19-3.15-40.064m-2.363 55.027c3.293-19.702-2.702-44.812-6.595-58.472m0.615 72.449c3.473-23.023-2.253-45.146-8.884-67.134m1.772 81.317c1.58-26.535-3.082-48.637-8.76-69.209m1.418 83.146c0.597-21.862-2.61-45.502-8.31-69.463m-2.592 89.151c6.103-16.944 3.546-24.587-3.806-77.535m-5.61 93.22c6.63-30.116 0.103-53.853-0.985-80.227m-4.823 91.816c-0.942-24.872-1.857-50.997-3.052-75.869m2.362 90.563c-4.978-13.905-15.662-21.53-8.998-76.457m8.309 87.974c-27.056-30.041-18.732-50.168-17.128-69.398m16.242 78.553c-15.181-15.253-36.248-25.83-24.707-62.311m13.19 65.263c-32.452-33.499-22.056-41.941-19.589-53.844m6.653 52.914c-18.37-17.506-15.97-36.12-13.15-43.17m-1.968 37.506c-6.692-4.546-3.959-9.845-4.725-14.865"/>
   <path d="m76.336 47.294c-0.361-5.252-0.722-10.514-1.083-15.947m4.627 25.495c1.302-11.576 1.509-22.549-0.886-32.09m5.611 44.493c0.565-16.038 2.088-32.937 3.58-51.384m2.325 67.233c-2.97-29.956 8.786-46.282 7.384-64.772m-0.788 80.029c-4.747-29.246 8.989-53.752 9.056-65.559m19.294 139.58c1.887-8.901 5.893-9.998 4.627-30.515m-2.461 41.54c16.93-25.151 11.291-40.525 10.533-55.617m-7.679 69.005c6.565-19.691 27.22-32.368 14.668-73.73m-4.774 77.372c-0.68-17.491 24.541-31.412 15.306-56.503m-5.118 49.317c-0.556-8.283 16.522-19.451 13.387-35.536m-3.937 32.485c4.339-11.806 10.466-13.244 7.481-29.63m1.291 27.066c1.801-3.113 2.724-7.299 3.04-11.71m-82.49-160.16c5.69 3.07 10.595 6.44 13.88 10.435m-22.74-5.217c12.66 0.204 19.945 5.347 25.79 11.812m-30.909-3.15c20.883 0.072 29.831 5.418 34.847 12.502m-37.012-5.513c19.13 4.17 37.599 8.684 43.805 19.59m-40.655-10.927c16.858 4.02 35.484 12.202 47.053 24.609m-43.706-14.766c17.201 5.662 30.012 12.95 41.245 19.885m-36.618-8.171c11.026 3.314 22.279 7.906 33.862 14.372m-29.728-4.036c8.909 3.634 16.447 6.27 27.168 11.222m-23.526-1.378 20.18 8.466m-15.652 1.378 12.206 5.217m-8.861 5.049 6.007 1.35m42.032 20.278c-0.71-0.285-7.974-3.15-8.17-3.052m12.994 12.403c-5.61-3.204-10.683-5.471-15.553-7.383m20.376 15.849c-1.068-1.111-24.63-11.941-23.822-10.73m27.267 17.719c-10.19-3.59-20.465-7.037-30.121-11.517m37.8 18.9c-15.63-1.426-28.156-7.624-41.541-12.502m-3.642 5.513c14.898 5.7 29.281 13.981 45.38 13.682m-43.018-7.087c15.363 8.426 30.693 15.26 45.872 14.864m-46.167-8.761c13.366 13.152 38.836 12.544 48.628 19.688m-10.139 2.46c-15.58-4.708-29.395-6.814-38.489-15.159m28.744 18.309c-9.062-1.648-18.08-3.745-26.775-9.056m17.817 12.896c-6.51-2.323-12.222-4.293-15.947-5.316"/>
   <path d="m181.28 39.936c-7.157 11.074-11.98 29.413-16.764 39.608-15.538 33.114-37.826 70.031-42.889 79.895-2.298 4.478 0.152 23.063-2.756 37.997-9.375-0.831-12.87 1.2994-12.335 5.5182-17.565-2.415-23.926-7.9142-36.096-12.015 5.136-14.792 6.682-23.99 5.142-28.768 17.594-22.917 29.97-51.052 42.926-78.607 9.873-21 30.225-57.41 31.272-61.347 6.265-21.452 30.668-10.118 31.5 17.719z"/>
  </g>
 </g>
 <path d="m152.2 13.365-3.5661 10.677c14.142-16.043 31.115 4.3238 31.91 17.759 2.8553-4.9411 5.5529-7.2286 6.8244-8.6635-0.0168-12.025-21.793-36.821-35.169-19.772zm-86.1 184.24c4.2483 3.281 29.377 9.8644 36.205 12.223 2.1876 0.62051 6.4116-6.0362 5.2104-8.408-13.011-3.8286-24.955-7.9524-37.022-11.705-1.183 2.884-5.9037 7.0547-4.3937 7.8904z" fill="#ff8080" fill-rule="evenodd" stroke="#000" stroke-width=".8"/>
 <path d="m68.156 28.243 4.3092 10.412c5.5104-20.62 20.064-24.221 30.605-12.205l-4.8175-12.122c-14.428-12.34-27.159-5.5725-30.096 13.914zm71.764 174.84c2.2629 2.228 4.0275 8.0268 6.7996 6.6052 4.127-7.103 20.88-10.158 33.454-14.727 1.637-1.4598-2.7834-4.7712-3.7939-7.7521-11.802 2.309-36.435 10.238-36.46 15.873z" fill="#ff8080" fill-rule="evenodd" stroke="#000" stroke-width=".8"/>
</svg>

<svg xmlns="http://www.w3.org/2000/svg" cursor="default" viewBox="0 0 256 256">
    <path fill="#666" fill-rule="evenodd" stroke="#000" stroke-width=".551" d="M171.679 178.736c-.032-2.608-.2-3.386 2.543-4.515 1.49-.763 5.513.02 9.3-1.683 3.499-1.573 6.803-5.62 7.548-6.694 1.504-2.645.413-4.709-2.768-5.682-1.406.152-6.222 1.831-8.978 1.89-8.186 1.005-9.415 2.077-13.705.088z"/>
    <path fill="#666" fill-rule="evenodd" stroke="#000" stroke-width=".723" d="M168.37 198.883s5.587 8.483 11.823 14.544c4.162 4.046 9.294 8.27 12.557 11.206 2.803 2.523 8.853 7.748 8.853 7.748 1.813 1.52 6.476-2.949 4.547-5.445-5.15-6.666-10.552-13.182-15.72-19.65-4.085-5.112-6.847-7.813-11.01-13-4.015-.289-8.778-1.733-11.05 4.597z"/>
    <path fill="#666" fill-rule="evenodd" stroke="#000" stroke-width=".551" d="M131.585 197.988s-.517 6.837-1.058 13.45c-.362 4.413-.769 8.265-.914 11.617-.125 2.879-.073 8.645-.073 8.645-.015 1.81 4.848 2.6 5.38.269 1.418-6.228 2.454-12.405 3.748-18.552 1.023-4.858 1.922-9.302 4.583-13.876-1.767-2.589-6.865-3.084-11.666-1.553z"/>
    <path fill="#666" fill-rule="evenodd" stroke="#ff2a2a" stroke-width="1.102" d="M72.633 37.975c10.043 26.31 19.492 52.622 30.905 78.933l19.907 39.258c4.087 6.857.06 16.36 2.937 23.85 3.017 7.852 2.733 15.124 4.672 19.4 5.883-1.616 10.964 5.506 10.964 5.506l35.511-13.953c-2.069-4.011-1.786-5.478-3.34-10.859-6.307-6.703-4.087-11.997-4.456-17.053-8.222-1.34-19.075-28.18-27.29-43.67l-17.745-45.078a3826.568 3826.568 0 0 1-23.944-51.926c-6.87-16.31-30.657-8.43-28.12 15.592z"/>
    <path fill="#666" fill-rule="evenodd" stroke="#000" stroke-width=".64" d="M156.725 202.333s4.137 6.13 8.499 12.667c2.911 4.363 6.613 9.366 8.934 12.58 1.993 2.762 12.755 17.32 12.755 17.32 2.227 3.128 9.296-.01 6.369-5.208-1.652-2.933-4.413-8.018-7.457-12.901-3.828-6.141-8.005-12.2-9.888-15.923-2.672-5.282-7.008-10.422-9.736-15.785-3.394-1.041-6.5 2.15-9.476 7.25z"/>
    <path fill="none" stroke="#ff2a2a" stroke-width="1.102" d="M104.39 117.578c-4.932-23.868 4.007-45.72 8.958-67.036M120.436 64.619c-8.613 21.72-5.885 44.816-8.761 67.232"/>
    <path fill="#666" fill-rule="evenodd" stroke="#000" stroke-width=".551" d="M76.6 175.864c-.093.083-4.42 4.047-7.377 3.828-3.182-.503-6.488-.867-8.659-2.509-2.252-2.045-1.857-4.346.863-6.26 1.383-.295 3.027-.153 4.802.208 6.365-4.497 6.915-6.45 10.372-9.675z"/>
    <path fill="#666" fill-rule="evenodd" stroke="#000" stroke-width=".723" d="M78.594 200.806s-5.617 8.463-11.874 14.503c-4.176 4.031-9.323 8.236-12.596 11.162-2.812 2.513-8.88 7.717-8.88 7.717-1.818 1.513-6.465-2.972-4.528-5.46 5.174-6.649 10.598-13.146 15.79-19.596 4.102-5.098 6.873-7.79 11.055-12.962 4.015-.274 8.783-1.702 11.033 4.636z"/>
    <path fill="#666" fill-rule="evenodd" stroke="#000" stroke-width=".64" d="M91.046 206.247s-3.661 6.425-7.515 13.274c-2.572 4.571-5.884 9.84-7.955 13.221-1.778 2.905-11.405 18.237-11.405 18.237-1.984 3.288-9.271.694-6.745-4.711 1.424-3.049 3.792-8.33 6.457-13.429 3.351-6.413 7.057-12.77 8.653-16.626 2.264-5.47 6.198-10.923 8.512-16.478 3.305-1.295 6.644 1.651 9.998 6.512z"/>
    <path fill="#666" fill-rule="evenodd" stroke="#000" stroke-width=".551" d="M102.693 208.18s-1.657 6.442-3.888 12.69c-1.49 4.17-3.395 7.848-4.643 10.962-1.072 2.675-7.532 17.455-7.532 17.455-1.188 3.023-7.995 2.181-6.685-2.66 1.667-6.165 6.122-21.075 7.476-27.21 1.07-4.847 4.342-9.87 5.44-14.797 2.677-1.631 6.089.186 9.832 3.56zM118.187 197.436s1.02 6.78 2.048 13.335c.687 4.374 1.377 8.186 1.77 11.517.337 2.862.71 8.617.71 8.617.149 1.804-4.643 2.95-5.344.665-1.875-6.106-3.364-12.19-5.109-18.225-1.378-4.769-2.603-9.134-5.594-13.499 1.57-2.712 6.618-3.583 11.519-2.41z"/>
    <path fill="#666" fill-rule="evenodd" stroke="#ff2a2a" stroke-width="1.102" d="M181.285 39.936c-7.157 11.074-11.98 29.413-16.764 39.608-15.538 33.114-37.826 70.031-42.889 79.895-2.298 4.478.152 23.063-2.756 37.997-9.375-.831-13.733 1.635-11.616 5.71-17.565-2.415-24.645-8.106-36.815-12.207 5.136-14.792 6.682-23.99 5.142-28.768 17.594-22.917 29.97-51.052 42.926-78.607 9.873-21 30.225-57.41 31.272-61.347 6.265-21.452 30.668-10.118 31.5 17.719z"/>
    <path fill="#666" fill-rule="evenodd" stroke="#000" stroke-width=".551" d="M146.17 207.776s2.435 6.19 5.417 12.118c1.99 3.956 4.332 7.371 5.953 10.309 1.393 2.523 9.618 16.398 9.618 16.398 1.55 2.854 8.202 1.183 6.308-3.46-2.412-5.915-8.663-20.164-10.76-26.086-1.657-4.68-5.521-9.264-7.217-14.018-2.856-1.29-6.018.932-9.32 4.74z"/>
    <path fill="none" stroke="#ff2a2a" stroke-width="1.102" d="M166.323 13.85c-5.35 2.067-9.293 1.434-17.254 10.288M175.674 23.398c-18.036-6.252-22.3 2.493-30.225 7.921M179.907 32.848c-27.206-7.265-34.71 5.533-39.217 7.386M180.202 41.51c-34.204-6.522-39.702 8.456-47.348 13.73M175.674 50.469c-23.137-4.724-38.704 7.57-49.636 17.718M172.229 59.722c-23.417-.969-44.456 11.563-52.52 21.46M168.193 70.944c-32.266 1.816-46.13 14.084-53.603 20.996M163.665 81.181c-25.658 2.606-49.023 15.153-55.125 23.822M158.448 92.206c-31.611 4.078-42.444 13.543-54.24 21.46M153.821 101.46c-21.714 3.77-40.695 12.704-54.882 22.64M148.702 110.91c-20.952 4.397-37.229 14.39-54.928 23.067M143.658 120.105c-21.322 5.76-38.843 14.86-56.496 25.39M139.154 128.431c-13.555 5.066-35.678 18.984-58.177 26.677M134.429 136.208c-12.855 7.06-34.487 28.036-58.767 26.184M129.826 144.813c-6.927 10.176-28.456 25.986-53.869 27.128M71.347 188.31c1.675-4.876 13.267-8.481 27.218-12.234 8.642-2.324 18.283-8.513 22.789-16.116M78.221 192.317c17.904-7.323 37.568-13.351 42.242-23.51M88.852 196.255c16.44-6.138 27.274-11.616 31.599-18.408M98.819 199.203c9.185-3.359 16.876-7.14 21.233-11.865M178.627 44.464c-1.009-1.12-1.648-16.566-.885-16.44M173.115 56.67c.48-11.386-2.494-26.19-3.15-40.064M167.602 71.633c3.293-19.702-2.702-44.812-6.595-58.472M161.622 85.61c3.473-23.023-2.253-45.146-8.884-67.134M154.51 99.793c1.58-26.535-3.082-48.637-8.76-69.209M147.168 113.73c.597-21.862-2.61-45.502-8.31-69.463M136.266 133.418c6.103-16.944 3.546-24.587-3.806-77.535M126.85 149.103c6.63-30.116.103-53.853-.985-80.227M121.042 160.692c-.942-24.872-1.857-50.997-3.052-75.869M120.352 175.386c-4.978-13.905-15.662-21.53-8.998-76.457M119.663 186.903c-27.056-30.041-18.732-50.168-17.128-69.398M118.777 196.058c-15.181-15.253-36.248-25.83-24.707-62.311M107.26 199.01c-32.452-33.499-22.056-41.941-19.589-53.844M94.324 198.08c-18.37-17.506-15.97-36.12-13.15-43.17M79.206 192.416c-6.692-4.546-3.959-9.845-4.725-14.865"/>
    <path fill="#ff8080" fill-rule="evenodd" stroke="#ff2a2a" stroke-width="1.102" d="M151.149 15.283l-1.95 8.632c12.874-25.002 30.628-1.153 32.02 16.496.316-3.71 1.01-7.623 2.366-9.814 2.614-14.014-22.87-36.422-32.436-15.314zM65.72 196.747c-1.84 2.514 38.71 12.151 37.504 13.289 1.444-2.972 2.362-5.275 5.756-4.03-.757-1.82-1.333-3.208-2.409-4.731-15.347-3.51-24.02-7.35-35.93-11.124-1.183 2.884-3.267 4.418-4.921 6.596z"/>
    <path fill="none" stroke="#ff2a2a" stroke-width="1.102" d="M76.336 47.294c-.361-5.252-.722-10.514-1.083-15.947M79.88 56.842c1.302-11.576 1.509-22.549-.886-32.09M84.605 69.245c.565-16.038 2.088-32.937 3.58-51.384M90.51 85.094c-2.97-29.956 8.786-46.282 7.384-64.772M97.106 100.351c-4.747-29.246 8.989-53.752 9.056-65.559M125.456 174.376c1.887-8.901 5.893-9.998 4.627-30.515M127.622 185.401c16.93-25.151 11.291-40.525 10.533-55.617M130.476 198.789c6.565-19.691 27.22-32.368 14.668-73.73M140.37 202.431c-.68-17.491 24.541-31.412 15.306-56.503M150.558 195.245c-.556-8.283 16.522-19.451 13.387-35.536M160.008 192.194c4.339-11.806 10.466-13.244 7.481-29.63M168.78 189.63c1.801-3.113 2.724-7.299 3.04-11.71M89.33 17.762c5.69 3.07 10.595 6.44 13.88 10.435M80.47 22.98c12.66.204 19.945 5.347 25.79 11.812M75.351 31.642c20.883.072 29.831 5.418 34.847 12.502M73.186 38.631c19.13 4.17 37.599 8.684 43.805 19.59M76.336 47.294c16.858 4.02 35.484 12.202 47.053 24.609M79.683 57.137c17.201 5.662 30.012 12.95 41.245 19.885M84.31 68.851c11.026 3.314 22.279 7.906 33.862 14.372M88.444 79.187c8.909 3.634 16.447 6.27 27.168 11.222M92.086 89.031l20.18 8.466M96.614 98.875l12.206 5.217M99.959 109.141l6.007 1.35M147.998 130.769c-.71-.285-7.974-3.15-8.17-3.052M152.822 140.12c-5.61-3.204-10.683-5.471-15.553-7.383M157.645 148.586c-1.068-1.111-24.63-11.941-23.822-10.73M161.09 155.575c-10.19-3.59-20.465-7.037-30.121-11.517M168.769 162.958c-15.63-1.426-28.156-7.624-41.541-12.502M123.586 155.969c14.898 5.7 29.281 13.981 45.38 13.682M125.948 162.564c15.363 8.426 30.693 15.26 45.872 14.864M125.653 168.667c13.366 13.152 38.836 12.544 48.628 19.688M164.142 190.815c-15.58-4.708-29.395-6.814-38.489-15.159M154.397 193.965c-9.062-1.648-18.08-3.745-26.775-9.056M145.439 197.805c-6.51-2.323-12.222-4.293-15.947-5.316"/>
    <path fill="#ff8080" fill-rule="evenodd" stroke="#ff2a2a" stroke-width="1.102" d="M68.427 30.074l4.377 8.243c6.05-21.318 21.278-27.671 29.52-12.68l-1.97-10.63c-14.428-12.34-28.99-4.42-31.927 15.067zM140.36 203.15l5.986 6.334c4.127-7.103 21.185-10.327 33.759-14.896l-3.76-6.125c-11.802 2.309-35.96 9.052-35.985 14.687z"/>
</svg>
